app/assets/images/heroicons/outline/cog-6-tooth.svg

<svg width="24" height="24" viewBox="0 0 24 24" fill="none" xmlns="http://www.w3.org/2000/svg">
<path d="M9.59356 3.94014C9.68397 3.39768 10.1533 3.00009 10.7033 3.00009H13.2972C13.8472 3.00009 14.3165 3.39768 14.4069 3.94014L14.6204 5.22119C14.6828 5.59523 14.9327 5.9068 15.2645 6.09045C15.3387 6.13151 15.412 6.17393 15.4844 6.21766C15.8095 6.41393 16.2048 6.47495 16.5604 6.34175L17.7772 5.88587C18.2922 5.69293 18.8712 5.9006 19.1462 6.37687L20.4432 8.6233C20.7181 9.09957 20.6085 9.70482 20.1839 10.0544L19.1795 10.8812C18.887 11.122 18.742 11.4938 18.7491 11.8726C18.7498 11.915 18.7502 11.9575 18.7502 12.0001C18.7502 12.0427 18.7498 12.0852 18.7491 12.1275C18.742 12.5064 18.887 12.8782 19.1795 13.119L20.1839 13.9458C20.6085 14.2953 20.7181 14.9006 20.4432 15.3769L19.1462 17.6233C18.8712 18.0996 18.2922 18.3072 17.7772 18.1143L16.5604 17.6584C16.2048 17.5252 15.8095 17.5862 15.4844 17.7825C15.412 17.8263 15.3387 17.8687 15.2645 17.9097C14.9327 18.0934 14.6828 18.4049 14.6204 18.779L14.4069 20.06C14.3165 20.6025 13.8472 21.0001 13.2972 21.0001H10.7033C10.1533 21.0001 9.68397 20.6025 9.59356 20.06L9.38005 18.779C9.31771 18.4049 9.06774 18.0934 8.73597 17.9097C8.66179 17.8687 8.58847 17.8263 8.51604 17.7825C8.19101 17.5863 7.79568 17.5252 7.44011 17.6584L6.22325 18.1143C5.70826 18.3072 5.12926 18.0996 4.85429 17.6233L3.55731 15.3769C3.28234 14.9006 3.39199 14.2954 3.81657 13.9458L4.82092 13.119C5.11343 12.8782 5.25843 12.5064 5.25141 12.1276C5.25063 12.0852 5.25023 12.0427 5.25023 12.0001C5.25023 11.9575 5.25063 11.915 5.25141 11.8726C5.25843 11.4938 5.11343 11.122 4.82092 10.8812L3.81657 10.0544C3.39199 9.70484 3.28234 9.09958 3.55731 8.62332L4.85429 6.37688C5.12926 5.90061 5.70825 5.69295 6.22325 5.88588L7.4401 6.34176C7.79566 6.47496 8.19099 6.41394 8.51603 6.21767C8.58846 6.17393 8.66179 6.13151 8.73597 6.09045C9.06774 5.9068 9.31771 5.59523 9.38005 5.22119L9.59356 3.94014Z" stroke="#0F172A" stroke-width="1.5" stroke-linecap="round" stroke-linejoin="round"/>
<path d="M15 12C15 13.6569 13.6569 15 12 15C10.3431 15 9 13.6569 9 12C9 10.3432 10.3431 9.00001 12 9.00001C13.6569 9.00001 15 10.3432 15 12Z" stroke="#0F172A" stroke-width="1.5" stroke-linecap="round" stroke-linejoin="round"/>
</svg>

<svg xmlns="http://www.w3.org/2000/svg" fill="none" viewBox="0 0 24 24" stroke-width="1.5" stroke="currentColor" aria-hidden="true" data-slot="icon">
  <path stroke-linecap="round" stroke-linejoin="round" d="M9.594 3.94c.09-.542.56-.94 1.11-.94h2.593c.55 0 1.02.398 1.11.94l.213 1.281c.063.374.313.686.645.87.074.04.147.083.22.127.325.196.72.257 1.075.124l1.217-.456a1.125 1.125 0 0 1 1.37.49l1.296 2.247a1.125 1.125 0 0 1-.26 1.431l-1.003.827c-.293.241-.438.613-.43.992a7.723 7.723 0 0 1 0 .255c-.008.378.137.75.43.991l1.004.827c.424.35.534.955.26 1.43l-1.298 2.247a1.125 1.125 0 0 1-1.369.491l-1.217-.456c-.355-.133-.75-.072-1.076.124a6.47 6.47 0 0 1-.22.128c-.331.183-.581.495-.644.869l-.213 1.281c-.09.543-.56.94-1.11.94h-2.594c-.55 0-1.019-.398-1.11-.94l-.213-1.281c-.062-.374-.312-.686-.644-.87a6.52 6.52 0 0 1-.22-.127c-.325-.196-.72-.257-1.076-.124l-1.217.456a1.125 1.125 0 0 1-1.369-.49l-1.297-2.247a1.125 1.125 0 0 1 .26-1.431l1.004-.827c.292-.24.437-.613.43-.991a6.932 6.932 0 0 1 0-.255c.007-.38-.138-.751-.43-.992l-1.004-.827a1.125 1.125 0 0 1-.26-1.43l1.297-2.247a1.125 1.125 0 0 1 1.37-.491l1.216.456c.356.133.751.072 1.076-.124.072-.044.146-.086.22-.128.332-.183.582-.495.644-.869l.214-1.28Z"/>
  <path stroke-linecap="round" stroke-linejoin="round" d="M15 12a3 3 0 1 1-6 0 3 3 0 0 1 6 0Z"/>
</svg>
